svg/24/cathedral--filled.svg

<svg width="24" height="24" viewBox="0 0 24 24" fill="currentColor" xmlns="http://www.w3.org/2000/svg"><path fill-rule="evenodd" clip-rule="evenodd" d="M6.48136 3.00473C6.27023 1.92795 4.72987 1.92794 4.51873 3.00472L3.03737 10.5594C3.01252 10.6862 3 10.8151 3 10.9443L3.00007 20C3.00007 21.1046 3.8955 22 5.00007 22L8.5 22C9.60457 22 10.5 21.1046 10.5 20V17.5C10.5 16.6716 11.1716 16 12 16C12.8284 16 13.5 16.6716 13.5 17.5V20C13.5 21.1046 14.3954 22 15.5 22L18.9999 22C20.1045 22 20.9999 21.1046 20.9999 20L21 10.9443C21 10.8151 20.9875 10.6862 20.9626 10.5594L19.4813 3.00472C19.2701 1.92794 17.7298 1.92795 17.5186 3.00473L16.0374 10.5594C16.0125 10.6862 16 10.8151 16 10.9442L16 11.5L12.75 8.25V6.75C12.75 6.33579 12.4142 6 12 6C11.5858 6 11.25 6.33579 11.25 6.75V8.25L8 11.5L8 10.9442C8 10.8151 7.98748 10.6862 7.96263 10.5594L6.48136 3.00473ZM6.32438 10H4.67563L5.50003 5.7957L6.32438 10ZM19.3244 10H17.6756L18.5 5.7957L19.3244 10Z"/></svg>

<svg xmlns="http://www.w3.org/2000/svg" width="24" height="24" fill="currentColor" viewBox="0 0 24 24">
  <path fill-rule="evenodd" d="M6.481 3.005c-.21-1.077-1.751-1.077-1.962 0L3.037 10.56a2.001 2.001 0 0 0-.037.384V20a2 2 0 0 0 2 2h3.5a2 2 0 0 0 2-2v-2.5a1.5 1.5 0 0 1 3 0V20a2 2 0 0 0 2 2H19a2 2 0 0 0 2-2v-9.056c0-.129-.012-.258-.037-.385L19.48 3.005c-.21-1.077-1.751-1.077-1.962 0l-1.482 7.555a1.996 1.996 0 0 0-.037.384v.556l-3.25-3.25v-1.5a.75.75 0 0 0-1.5 0v1.5L8 11.5v-.556a2 2 0 0 0-.037-.384L6.48 3.005ZM6.324 10H4.676L5.5 5.796 6.324 10Zm13 0h-1.648l.824-4.204.824 4.204Z" clip-rule="evenodd"/>
</svg>
